X:1
T:Pirouette, cacahute
C:Chanson franaise traditionnelle, fichier abc : Bernard Loffet
L:1/8
Q:270
K:C
M:3/4
 z4 [dG,]c | [B2G,,2] G,B [AD,]B | [d2G,,2] [d2G,2] [dG,]A | [A2D,,2] [A2D,2] [dD,]c | \
 [B2G,,2] [G2G,2] [dG,]c | [B2G,,2] G,B [AD,]B | [d2G,,2] G,d [dG,,]d | [e2C,,2] C,c [eC,]e | \
M:2/4
 [dG,,]B [BG,]c | [d2D,,2] [c2D,2] | [B2D,,2] [A2D,2] | \
M:3/4
 [G2G,,2] G,4 | \
W:Created with TablEdit http://www.tabledit.com/ by Bernard Loffet
